X: 11082
T: ROSIE'S JIG
C: Bob McQuillen 2 July 2000
B: Bob's Note Book 11 #82
R: jig
Z: 2020 John Chambers <jc:trillian.mit.edu>
M: 6/8
L: 1/8
K: G
A \
| BGE DGB | ded B2G | AcB Adc | BAG FED |\
| BGE DGB | ded BGA | Bcd cAF | AGG G2 :|
|: G \
| FGA AFD | cBc A2B | GBd dBG | cde d2d |\
| ece dBd | gfe dBG | cec BdB | AGF G2 :|
%%begintext align
%% You've run across the Seattle Canotes
%% before in that pages of these tune books, but this one is for Rosie Canote.
%% She's Liz and Greg's daughter and she's a real sweetie. She's
%% getting to be a fine fiddle player, and I hope we get to play
%% this tune together at next year's Folklife, Rosie!
%%endtext

%%sep 1 1 500

%%sep 1 1 500

